X:1
T:Title
%%score { ( 1 3 ) | ( 2 4 ) }
L:1/8
M:4/4
K:E
V:1 treble nm="Grand Piano"
V:3 treble 
V:2 bass 
V:4 bass 
V:1
 z4 z2[Q:1/4=100] EF | G2 B2 [DF]2 [DG]2 | F2 E4 EE | [CE]2 [Ec]2 [Fd]2 [Ec]2 |[M:3/4] B6 | %5
[M:1/4] EF |[M:4/4] G2 B2 [DF]2 [DG]2 | F2 E4 GG | F2 B2 c2 ^A2 |[M:3/4] [DB]6 |[M:1/4] [DB][DB] | %11
[M:4/4] [Dd]2 [Dc]2 [DA]2 [Dc]2 | c2 B4 BB | [Dd]2 [Dc]2 [DF]2 [FA]2 |[M:3/4] G6 |[M:1/4] z F | %16
[M:4/4] G2 B2 A2 G2 | [CG]2 [CF]4 [CG][CG] | [DB]2 [DA]2 D2 F2 |[M:3/4] E6 |[M:1/4] [GB][Ge] | %21
[M:4/4] [Ad]2 [Ac]2 [FA]2 [Ac]2 | [Ac]2 [GB]4 [GB][Ge] | [Ad]2 [Ac]2 [DF]2 [FA]2 |[M:3/4] G6 | %25
[M:1/4] z F |[M:4/4] G2 B2 A2 G2 | [CG]2 [CF]4 [CG][CG] | [DB]2 [DA]2 D2 F2 |[M:7/4] E6 z2 z2 z4 |] %30
V:2
 z4 z2 [E,G,][E,A,E] | [E,B,E]2 [E,G,E]2 [B,,A,]2 [B,,B,]2 | [E,A,D]2 [E,G,]4 [E,G,][E,G,=D] | %3
 [A,,A,]2 [A,,A,]2 [A,,A,]2 [A,,A,]2 |[M:3/4] [E,G,E]6 |[M:1/4] [E,G,][E,A,E] | %6
[M:4/4] [E,B,E]2 [E,G,E]2 [B,,A,]2 [B,,B,]2 | [E,A,D]2 [E,G,]4 [E,B,E][E,B,E] | %8
 [F,B,D]2 [F,B,D]2 [F,^A,E]2 [F,CE]2 |[M:3/4] [B,,B,]6 |[M:1/4] [B,,B,][B,,B,] | %11
[M:4/4] [B,,A,]2 [B,,A,]2 [B,,F,]2 [B,,A,]2 | [E,A,E]2 [E,G,E]4 [E,G,E]2 | %13
 [B,,A,]2 [B,,F,]2 [B,,B,]2 [D,B,]2 |[M:3/4] [E,B,E]6 |[M:1/4] G,A, | %16
[M:4/4] [E,B,E]2 [E,=DE]2 [E,CE]2 [E,B,E]2 | [A,,A,]2 [A,,A,]4 [A,,A,][A,,A,] | %18
 [B,,F,]2 [B,,F,]2 [B,,A,B,]2 [D,A,B,]2 |[M:3/4] [E,G,B,]6 |[M:1/4] [E,E][E,B,] | %21
[M:4/4] [B,,B,]2 [B,,B,]2 [D,B,]2 [D,B,]2 | [E,E]2 [E,E]4 [E,E][E,B,] | %23
 [B,,B,]2 [B,,B,]2 [B,,B,]2 [D,B,]2 |[M:3/4] [E,B,E]6 |[M:1/4] G,A, | %26
[M:4/4] [E,B,E]2 [E,=DE]2 [E,CE]2 [E,B,E]2 | [A,,A,]2 [A,,A,]4 [A,,A,][A,,A,] | %28
 [B,,F,]2 [B,,F,]2 [B,,A,B,]2 [D,A,B,]2 |[M:7/4] [E,G,B,]6 z2 z2 z4 |] %30
V:3
 x8 | x8 | x8 | x8 |[M:3/4] x6 |[M:1/4] x2 |[M:4/4] x8 | x8 | x8 |[M:3/4] x6 |[M:1/4] x2 | %11
[M:4/4] x8 | x8 | x8 |[M:3/4] x6 |[M:1/4] E2 |[M:4/4] x8 | x8 | x8 |[M:3/4] x6 |[M:1/4] x2 | %21
[M:4/4] x8 | x8 | x8 |[M:3/4] x6 |[M:1/4] E2 |[M:4/4] x8 | x8 | x8 |[M:7/4] x14 |] %30
V:4
 x8 | x8 | x8 | x8 |[M:3/4] x6 |[M:1/4] x2 |[M:4/4] x8 | x8 | x8 |[M:3/4] x6 |[M:1/4] x2 | %11
[M:4/4] x8 | x8 | x8 |[M:3/4] x6 |[M:1/4] E,2 |[M:4/4] x8 | x8 | x8 |[M:3/4] x6 |[M:1/4] x2 | %21
[M:4/4] x8 | x8 | x8 |[M:3/4] x6 |[M:1/4] E,2 |[M:4/4] x8 | x8 | x8 |[M:7/4] x14 |] %30

